img/logo-footer.svg

<svg width="188" height="31" viewBox="0 0 188 31" fill="none" xmlns="http://www.w3.org/2000/svg">
<path d="M14.3369 17.0527C14.3369 18.3223 14.0293 19.4258 13.4141 20.3633C12.7988 21.3008 11.9004 22.0234 10.7188 22.5312C9.54688 23.0391 8.12109 23.293 6.44141 23.293C5.69922 23.293 4.97168 23.2441 4.25879 23.1465C3.55566 23.0488 2.87695 22.9072 2.22266 22.7217C1.57812 22.5264 0.962891 22.2871 0.376953 22.0039V17.7852C1.39258 18.2344 2.44727 18.6396 3.54102 19.001C4.63477 19.3623 5.71875 19.543 6.79297 19.543C7.53516 19.543 8.13086 19.4453 8.58008 19.25C9.03906 19.0547 9.37109 18.7861 9.57617 18.4443C9.78125 18.1025 9.88379 17.7119 9.88379 17.2725C9.88379 16.7354 9.70312 16.2764 9.3418 15.8955C8.98047 15.5146 8.48242 15.1582 7.84766 14.8262C7.22266 14.4941 6.51465 14.1377 5.72363 13.7568C5.22559 13.5225 4.68359 13.2393 4.09766 12.9072C3.51172 12.5654 2.95508 12.1504 2.42773 11.6621C1.90039 11.1738 1.46582 10.583 1.12402 9.88965C0.791992 9.18652 0.625977 8.34668 0.625977 7.37012C0.625977 6.09082 0.918945 4.99707 1.50488 4.08887C2.09082 3.18066 2.92578 2.4873 4.00977 2.00879C5.10352 1.52051 6.39258 1.27637 7.87695 1.27637C8.99023 1.27637 10.0498 1.4082 11.0557 1.67188C12.0713 1.92578 13.1309 2.29688 14.2344 2.78516L12.7695 6.31543C11.7832 5.91504 10.8994 5.60742 10.1182 5.39258C9.33691 5.16797 8.54102 5.05566 7.73047 5.05566C7.16406 5.05566 6.68066 5.14844 6.28027 5.33398C5.87988 5.50977 5.57715 5.76367 5.37207 6.0957C5.16699 6.41797 5.06445 6.79395 5.06445 7.22363C5.06445 7.73145 5.21094 8.16113 5.50391 8.5127C5.80664 8.85449 6.25586 9.18652 6.85156 9.50879C7.45703 9.83105 8.20898 10.207 9.10742 10.6367C10.2012 11.1543 11.1338 11.6963 11.9053 12.2627C12.6865 12.8193 13.2871 13.4785 13.707 14.2402C14.127 14.9922 14.3369 15.9297 14.3369 17.0527ZM24.135 0.207031V4.85059C24.135 5.66113 24.1057 6.43262 24.0471 7.16504C23.9982 7.89746 23.9592 8.41504 23.9299 8.71777H24.1643C24.5158 8.15137 24.9309 7.69238 25.4094 7.34082C25.8977 6.98926 26.4348 6.73047 27.0207 6.56445C27.6066 6.39844 28.2365 6.31543 28.9104 6.31543C30.092 6.31543 31.1223 6.52539 32.0012 6.94531C32.8801 7.35547 33.5637 8.00488 34.052 8.89355C34.5402 9.77246 34.7844 10.915 34.7844 12.3213V23H30.3166V13.4346C30.3166 12.2627 30.1018 11.3789 29.6721 10.7832C29.2424 10.1875 28.5783 9.88965 27.6799 9.88965C26.7814 9.88965 26.0734 10.0996 25.5559 10.5195C25.0383 10.9297 24.6721 11.54 24.4572 12.3506C24.2424 13.1514 24.135 14.1328 24.135 15.2949V23H19.6672V0.207031H24.135ZM56.0668 14.7822C56.0668 16.1494 55.8812 17.3604 55.5102 18.415C55.1488 19.4697 54.6166 20.3633 53.9135 21.0957C53.2201 21.8184 52.3803 22.3652 51.3939 22.7363C50.4174 23.1074 49.3139 23.293 48.0834 23.293C46.9311 23.293 45.8715 23.1074 44.9047 22.7363C43.9477 22.3652 43.1127 21.8184 42.3998 21.0957C41.6967 20.3633 41.1498 19.4697 40.7592 18.415C40.3783 17.3604 40.1879 16.1494 40.1879 14.7822C40.1879 12.9658 40.5102 11.4277 41.1547 10.168C41.7992 8.9082 42.7172 7.95117 43.9086 7.29688C45.1 6.64258 46.5209 6.31543 48.1713 6.31543C49.7045 6.31543 51.0619 6.64258 52.2436 7.29688C53.435 7.95117 54.3676 8.9082 55.0414 10.168C55.725 11.4277 56.0668 12.9658 56.0668 14.7822ZM44.7436 14.7822C44.7436 15.8564 44.8607 16.7598 45.0951 17.4922C45.3295 18.2246 45.6957 18.7764 46.1937 19.1475C46.6918 19.5186 47.3412 19.7041 48.142 19.7041C48.933 19.7041 49.5727 19.5186 50.0609 19.1475C50.559 18.7764 50.9203 18.2246 51.1449 17.4922C51.3793 16.7598 51.4965 15.8564 51.4965 14.7822C51.4965 13.6982 51.3793 12.7998 51.1449 12.0869C50.9203 11.3643 50.559 10.8223 50.0609 10.4609C49.5629 10.0996 48.9135 9.91895 48.1127 9.91895C46.9311 9.91895 46.0717 10.3242 45.5346 11.1348C45.0072 11.9453 44.7436 13.1611 44.7436 14.7822ZM70.6695 6.31543C72.5152 6.31543 74.0045 7.0332 75.1373 8.46875C76.2799 9.9043 76.8512 12.0088 76.8512 14.7822C76.8512 16.6377 76.5826 18.2002 76.0455 19.4697C75.5084 20.7295 74.7662 21.6816 73.8189 22.3262C72.8717 22.9707 71.7828 23.293 70.5523 23.293C69.7613 23.293 69.0826 23.1953 68.5162 23C67.9498 22.7949 67.4664 22.5361 67.066 22.2236C66.6656 21.9014 66.3189 21.5596 66.026 21.1982H65.7916C65.8697 21.5889 65.9283 21.9893 65.9674 22.3994C66.0064 22.8096 66.026 23.21 66.026 23.6006V30.207H61.5582V6.62305H65.191L65.8209 8.74707H66.026C66.3189 8.30762 66.6754 7.90234 67.0953 7.53125C67.5152 7.16016 68.0182 6.86719 68.6041 6.65234C69.1998 6.42773 69.8883 6.31543 70.6695 6.31543ZM69.234 9.88965C68.4527 9.88965 67.8326 10.0508 67.3736 10.373C66.9146 10.6953 66.5777 11.1787 66.3629 11.8232C66.1578 12.4678 66.0455 13.2832 66.026 14.2695V14.7529C66.026 15.8076 66.1236 16.7012 66.3189 17.4336C66.524 18.166 66.8609 18.7227 67.3297 19.1035C67.8082 19.4844 68.4625 19.6748 69.2926 19.6748C69.9762 19.6748 70.5377 19.4844 70.9771 19.1035C71.4166 18.7227 71.7438 18.166 71.9586 17.4336C72.1832 16.6914 72.2955 15.7881 72.2955 14.7236C72.2955 13.1221 72.0465 11.916 71.5484 11.1055C71.0504 10.2949 70.2789 9.88965 69.234 9.88965Z" fill="white"/>
<path d="M102.133 12.2627C102.133 13.9131 101.928 15.417 101.517 16.7744C101.107 18.1221 100.482 19.2842 99.6424 20.2607C98.8123 21.2373 97.7576 21.9893 96.4783 22.5166C95.199 23.0342 93.6853 23.293 91.9373 23.293C90.1893 23.293 88.6756 23.0342 87.3963 22.5166C86.117 21.9893 85.0574 21.2373 84.2176 20.2607C83.3875 19.2842 82.7674 18.1172 82.3572 16.7598C81.9471 15.4023 81.742 13.8936 81.742 12.2334C81.742 10.0166 82.1033 8.08789 82.826 6.44727C83.5584 4.79687 84.6814 3.51758 86.1951 2.60938C87.7088 1.70117 89.6326 1.24707 91.9666 1.24707C94.2908 1.24707 96.2 1.70117 97.6941 2.60938C99.198 3.51758 100.311 4.79687 101.034 6.44727C101.766 8.09766 102.133 10.0361 102.133 12.2627ZM86.5027 12.2627C86.5027 13.7568 86.6883 15.0459 87.0594 16.1299C87.4402 17.2041 88.0311 18.0342 88.8318 18.6201C89.6326 19.1963 90.6678 19.4844 91.9373 19.4844C93.2264 19.4844 94.2713 19.1963 95.0721 18.6201C95.8728 18.0342 96.4539 17.2041 96.8152 16.1299C97.1863 15.0459 97.3719 13.7568 97.3719 12.2627C97.3719 10.0166 96.952 8.24902 96.1121 6.95996C95.2723 5.6709 93.8904 5.02637 91.9666 5.02637C90.6873 5.02637 89.6424 5.31934 88.8318 5.90527C88.0311 6.48145 87.4402 7.31152 87.0594 8.39551C86.6883 9.46973 86.5027 10.7588 86.5027 12.2627ZM117.321 6.31543C119.069 6.31543 120.476 6.79395 121.54 7.75098C122.604 8.69824 123.137 10.2217 123.137 12.3213V23H118.669V13.4346C118.669 12.2627 118.454 11.3789 118.024 10.7832C117.604 10.1875 116.94 9.88965 116.032 9.88965C114.665 9.88965 113.732 10.3535 113.234 11.2812C112.736 12.209 112.487 13.5469 112.487 15.2949V23H108.02V6.62305H111.433L112.033 8.71777H112.282C112.634 8.15137 113.068 7.69238 113.586 7.34082C114.113 6.98926 114.694 6.73047 115.329 6.56445C115.974 6.39844 116.638 6.31543 117.321 6.31543ZM134.004 23H129.536V0.207031H134.004V23ZM144.974 6.62305V23H140.506V6.62305H144.974ZM142.747 0.207031C143.412 0.207031 143.983 0.363281 144.461 0.675781C144.94 0.978516 145.179 1.5498 145.179 2.38965C145.179 3.21973 144.94 3.7959 144.461 4.11816C143.983 4.43066 143.412 4.58691 142.747 4.58691C142.074 4.58691 141.497 4.43066 141.019 4.11816C140.55 3.7959 140.316 3.21973 140.316 2.38965C140.316 1.5498 140.55 0.978516 141.019 0.675781C141.497 0.363281 142.074 0.207031 142.747 0.207031ZM160.778 6.31543C162.526 6.31543 163.932 6.79395 164.997 7.75098C166.061 8.69824 166.593 10.2217 166.593 12.3213V23H162.126V13.4346C162.126 12.2627 161.911 11.3789 161.481 10.7832C161.061 10.1875 160.397 9.88965 159.489 9.88965C158.122 9.88965 157.189 10.3535 156.691 11.2812C156.193 12.209 155.944 13.5469 155.944 15.2949V23H151.476V6.62305H154.889L155.49 8.71777H155.739C156.09 8.15137 156.525 7.69238 157.043 7.34082C157.57 6.98926 158.151 6.73047 158.786 6.56445C159.43 6.39844 160.094 6.31543 160.778 6.31543ZM179.746 6.31543C181.26 6.31543 182.563 6.6084 183.657 7.19434C184.751 7.77051 185.596 8.61035 186.191 9.71387C186.787 10.8174 187.085 12.165 187.085 13.7568V15.9248H176.523C176.572 17.1846 176.948 18.1758 177.651 18.8984C178.364 19.6113 179.35 19.9678 180.61 19.9678C181.655 19.9678 182.612 19.8604 183.481 19.6455C184.35 19.4307 185.244 19.1084 186.162 18.6787V22.1357C185.351 22.5361 184.502 22.8291 183.613 23.0146C182.734 23.2002 181.665 23.293 180.405 23.293C178.764 23.293 177.309 22.9902 176.04 22.3848C174.78 21.7793 173.789 20.8564 173.066 19.6162C172.353 18.376 171.997 16.8135 171.997 14.9287C171.997 13.0146 172.319 11.4229 172.964 10.1533C173.618 8.87402 174.526 7.91699 175.688 7.28223C176.85 6.6377 178.203 6.31543 179.746 6.31543ZM179.775 9.49414C178.906 9.49414 178.183 9.77246 177.607 10.3291C177.041 10.8857 176.714 11.7598 176.626 12.9512H182.895C182.886 12.2871 182.763 11.6963 182.529 11.1787C182.304 10.6611 181.963 10.251 181.504 9.94824C181.054 9.64551 180.478 9.49414 179.775 9.49414Z" fill="#3670C7"/>
</svg>

<svg width="188" height="31" fill="none" xmlns="http://www.w3.org/2000/svg"><path d="M14.337 17.053c0 1.27-.308 2.373-.923 3.31-.615.938-1.514 1.66-2.695 2.168-1.172.508-2.598.762-4.278.762-.742 0-1.47-.049-2.182-.146a15.05 15.05 0 0 1-2.036-.425 12.69 12.69 0 0 1-1.846-.718v-4.219c1.016.45 2.07.855 3.164 1.216 1.094.361 2.178.542 3.252.542.742 0 1.338-.098 1.787-.293.46-.195.791-.464.996-.806.205-.341.308-.732.308-1.171 0-.538-.18-.997-.542-1.377-.362-.381-.86-.738-1.494-1.07a60.5 60.5 0 0 0-2.124-1.07 24.347 24.347 0 0 1-1.626-.849 9.513 9.513 0 0 1-1.67-1.245A6.004 6.004 0 0 1 1.124 9.89C.792 9.187.626 8.347.626 7.37c0-1.28.293-2.373.879-3.281.586-.908 1.42-1.602 2.505-2.08 1.094-.488 2.383-.733 3.867-.733 1.113 0 2.173.132 3.179.396a19.69 19.69 0 0 1 3.178 1.113l-1.464 3.53c-.987-.4-1.87-.708-2.652-.922a8.6 8.6 0 0 0-2.388-.337c-.566 0-1.05.092-1.45.278-.4.176-.703.43-.908.762a2.055 2.055 0 0 0-.308 1.128c0 .507.147.937.44 1.289.303.341.752.674 1.348.996a60.21 60.21 0 0 0 2.255 1.128c1.094.517 2.027 1.06 2.798 1.626.782.556 1.382 1.216 1.802 1.977.42.752.63 1.69.63 2.813ZM24.135.207v4.644c0 .81-.03 1.582-.088 2.314-.049.732-.088 1.25-.117 1.553h.234A4.861 4.861 0 0 1 25.41 7.34a5.129 5.129 0 0 1 1.612-.777 6.906 6.906 0 0 1 1.89-.249c1.181 0 2.211.21 3.09.63.88.41 1.563 1.06 2.051 1.949.488.878.732 2.021.732 3.427V23h-4.467v-9.565c0-1.172-.215-2.056-.645-2.652-.43-.595-1.094-.893-1.992-.893-.899 0-1.607.21-2.124.63-.518.41-.884 1.02-1.099 1.83-.215.801-.322 1.783-.322 2.945V23h-4.468V.207h4.468Zm31.932 14.575c0 1.367-.186 2.578-.557 3.633-.361 1.055-.893 1.948-1.596 2.68a6.714 6.714 0 0 1-2.52 1.641c-.977.371-2.08.557-3.31.557-1.153 0-2.213-.186-3.18-.557a7.065 7.065 0 0 1-2.504-1.64c-.703-.733-1.25-1.626-1.64-2.681-.382-1.055-.572-2.266-.572-3.633 0-1.816.322-3.354.967-4.614.644-1.26 1.562-2.217 2.754-2.871 1.191-.654 2.612-.982 4.262-.982 1.534 0 2.89.328 4.073.982 1.191.654 2.124 1.611 2.797 2.871.684 1.26 1.026 2.798 1.026 4.614Zm-11.323 0c0 1.074.117 1.978.351 2.71.235.733.6 1.284 1.099 1.655.498.372 1.147.557 1.948.557.791 0 1.43-.185 1.919-.556.498-.372.86-.923 1.084-1.656.234-.732.351-1.636.351-2.71 0-1.084-.117-1.982-.351-2.695-.225-.723-.586-1.265-1.084-1.626-.498-.361-1.148-.542-1.948-.542-1.182 0-2.041.405-2.578 1.216-.528.81-.791 2.026-.791 3.647Zm25.925-8.467c1.846 0 3.335.718 4.468 2.154 1.143 1.435 1.714 3.54 1.714 6.313 0 1.856-.268 3.418-.805 4.688-.538 1.26-1.28 2.212-2.227 2.856-.947.645-2.036.967-3.267.967-.79 0-1.47-.098-2.036-.293a5.235 5.235 0 0 1-1.45-.776 6.892 6.892 0 0 1-1.04-1.026h-.234a12.692 12.692 0 0 1 .234 2.402v6.607h-4.468V6.623h3.633l.63 2.124h.205c.293-.44.65-.845 1.07-1.216.42-.37.922-.664 1.508-.879.596-.224 1.284-.337 2.066-.337ZM69.234 9.89c-.781 0-1.401.16-1.86.483-.46.322-.796.806-1.011 1.45-.205.645-.317 1.46-.337 2.447v.483c0 1.055.098 1.948.293 2.68.205.733.542 1.29 1.01 1.67.48.381 1.134.572 1.964.572.683 0 1.245-.19 1.684-.572.44-.38.767-.937.982-1.67.224-.742.337-1.645.337-2.71 0-1.6-.25-2.807-.748-3.618-.498-.81-1.27-1.215-2.314-1.215Z" fill="#fff"/><path d="M102.133 12.263c0 1.65-.205 3.154-.616 4.511-.41 1.348-1.035 2.51-1.875 3.487-.83.976-1.884 1.728-3.164 2.256-1.279.517-2.793.776-4.54.776-1.749 0-3.262-.259-4.542-.776-1.279-.528-2.339-1.28-3.178-2.256-.83-.977-1.45-2.144-1.86-3.501-.41-1.358-.616-2.866-.616-4.527 0-2.216.361-4.145 1.084-5.786.732-1.65 1.855-2.93 3.37-3.838 1.513-.908 3.437-1.362 5.77-1.362 2.325 0 4.234.454 5.728 1.362 1.504.909 2.617 2.188 3.34 3.838.732 1.65 1.099 3.59 1.099 5.816Zm-15.63 0c0 1.494.185 2.783.556 3.867.381 1.074.972 1.904 1.773 2.49.8.576 1.836.864 3.105.864 1.29 0 2.334-.288 3.135-.864.8-.586 1.382-1.416 1.743-2.49.371-1.084.557-2.373.557-3.867 0-2.246-.42-4.014-1.26-5.303-.84-1.29-2.222-1.934-4.145-1.934-1.28 0-2.325.293-3.135.88-.8.575-1.392 1.406-1.773 2.49-.37 1.074-.556 2.363-.556 3.867Zm30.818-5.948c1.748 0 3.155.479 4.219 1.436 1.064.947 1.597 2.47 1.597 4.57V23h-4.468v-9.565c0-1.172-.215-2.056-.645-2.652-.42-.595-1.084-.893-1.992-.893-1.367 0-2.3.463-2.798 1.391-.498.928-.747 2.266-.747 4.014V23h-4.467V6.623h3.413l.6 2.095h.249a4.518 4.518 0 0 1 1.304-1.377 5.726 5.726 0 0 1 1.743-.777 7.96 7.96 0 0 1 1.992-.249ZM134.004 23h-4.468V.207h4.468V23Zm10.97-16.377V23h-4.468V6.623h4.468ZM142.747.207c.665 0 1.236.156 1.714.469.479.303.718.874.718 1.714 0 .83-.239 1.406-.718 1.728-.478.313-1.049.469-1.714.469-.673 0-1.25-.156-1.728-.469-.469-.322-.703-.898-.703-1.728 0-.84.234-1.411.703-1.714.478-.313 1.055-.469 1.728-.469Zm18.031 6.108c1.748 0 3.154.479 4.219 1.436 1.064.947 1.596 2.47 1.596 4.57V23h-4.467v-9.565c0-1.172-.215-2.056-.645-2.652-.42-.595-1.084-.893-1.992-.893-1.367 0-2.3.463-2.798 1.391-.498.928-.747 2.266-.747 4.014V23h-4.468V6.623h3.413l.601 2.095h.249a4.506 4.506 0 0 1 1.304-1.377 5.726 5.726 0 0 1 1.743-.777 7.948 7.948 0 0 1 1.992-.249Zm18.968 0c1.514 0 2.817.293 3.911.88a6 6 0 0 1 2.534 2.519c.596 1.103.894 2.451.894 4.043v2.168h-10.562c.049 1.26.425 2.25 1.128 2.973.713.713 1.699 1.07 2.959 1.07 1.045 0 2.002-.108 2.871-.323a14.613 14.613 0 0 0 2.681-.966v3.457c-.811.4-1.66.693-2.549.879-.879.185-1.948.278-3.208.278-1.641 0-3.096-.303-4.365-.908-1.26-.606-2.251-1.529-2.974-2.769-.713-1.24-1.069-2.802-1.069-4.687 0-1.914.322-3.506.967-4.776.654-1.279 1.562-2.236 2.724-2.87 1.162-.645 2.515-.968 4.058-.968Zm.029 3.18c-.869 0-1.592.277-2.168.834-.566.557-.893 1.43-.981 2.622h6.269c-.009-.664-.132-1.255-.366-1.772a2.754 2.754 0 0 0-1.025-1.23c-.45-.303-1.026-.455-1.729-.455Z" fill="#3670C7"/></svg>
